report_00007_2020-12-11T15:55:29.892Z/total-byte-weight/samples/pages+cached+noexternal+nojs/raw/values.svg

<svg width="640" height="490" xmlns="http://www.w3.org/2000/svg" xmlns:xlink="http://www.w3.org/1999/xlink"><path fill="#fff" d="M0 0h640v490H0z"/><defs><path id="d" stroke-width=".222" stroke="currentColor" d="M-1-1h2v2h-2z"/><path id="b" stroke-width=".222" stroke="currentColor" d="M0-1.33l-1.33 2h2.66z"/><path id="f" stroke-width=".222" stroke="currentColor" d="M0 1.33L1.265.411.782-1.067l-1.564-.009-.483 1.487z"/><use xlink:href="#b" id="c" stroke="currentColor" transform="rotate(180)"/><use xlink:href="#d" id="e" stroke="currentColor" transform="rotate(45)"/><circle id="a" stroke-width=".222" stroke="currentColor" cx="0" cy="0" r="1"/></defs><g fill="none" color="#000" stroke="currentColor"><path stroke="#000" d="M78.8 394.2h9m527.2 0h-9"/><text transform="translate(70.5 398.1)" stroke="none" fill="#000" font-family="Arial" font-size="12" text-anchor="end"><tspan>456000</tspan></text></g><g fill="none" color="#000" stroke="currentColor"><path stroke="#000" d="M78.8 320.6h9m527.2 0h-9"/><text transform="translate(70.5 324.5)" stroke="none" fill="#000" font-family="Arial" font-size="12" text-anchor="end"><tspan>458000</tspan></text></g><g fill="none" color="#000" stroke="currentColor"><path stroke="#000" d="M78.8 247h9m527.2 0h-9"/><text transform="translate(70.5 250.9)" stroke="none" fill="#000" font-family="Arial" font-size="12" text-anchor="end"><tspan>460000</tspan></text></g><g fill="none" color="#000" stroke="currentColor"><path stroke="#000" d="M78.8 173.4h9m527.2 0h-9"/><text transform="translate(70.5 177.3)" stroke="none" fill="#000" font-family="Arial" font-size="12" text-anchor="end"><tspan>462000</tspan></text></g><g fill="none" color="#000" stroke="currentColor"><path stroke="#000" d="M78.8 99.8h9m527.2 0h-9"/><text transform="translate(70.5 103.7)" stroke="none" fill="#000" font-family="Arial" font-size="12" text-anchor="end"><tspan>464000</tspan></text></g><g fill="none" color="#000" stroke="currentColor"><path stroke="#000" d="M78.8 26.3h9m527.2 0h-9"/><text transform="translate(70.5 30.2)" stroke="none" fill="#000" font-family="Arial" font-size="12" text-anchor="end"><tspan>466000</tspan></text></g><g fill="none" color="#000" stroke="currentColor"><path stroke="#000" d="M78.8 418v-9m0-390.9v9"/><text transform="translate(78.8 439.9)" stroke="none" fill="#000" font-family="Arial" font-size="12" text-anchor="middle"><tspan>0</tspan></text></g><g fill="none" color="#000" stroke="currentColor"><path stroke="#000" d="M133 418v-9m0-390.9v9"/><text transform="translate(133 439.9)" stroke="none" fill="#000" font-family="Arial" font-size="12" text-anchor="middle"><tspan>10</tspan></text></g><g fill="none" color="#000" stroke="currentColor"><path stroke="#000" d="M187.1 418v-9m0-390.9v9"/><text transform="translate(187.1 439.9)" stroke="none" fill="#000" font-family="Arial" font-size="12" text-anchor="middle"><tspan>20</tspan></text></g><g fill="none" color="#000" stroke="currentColor"><path stroke="#000" d="M241.3 418v-9m0-390.9v9"/><text transform="translate(241.3 439.9)" stroke="none" fill="#000" font-family="Arial" font-size="12" text-anchor="middle"><tspan>30</tspan></text></g><g fill="none" color="#000" stroke="currentColor"><path stroke="#000" d="M295.4 418v-9m0-390.9v9"/><text transform="translate(295.4 439.9)" stroke="none" fill="#000" font-family="Arial" font-size="12" text-anchor="middle"><tspan>40</tspan></text></g><g fill="none" color="#000" stroke="currentColor"><path stroke="#000" d="M349.6 418v-9m0-390.9v9"/><text transform="translate(349.6 439.9)" stroke="none" fill="#000" font-family="Arial" font-size="12" text-anchor="middle"><tspan>50</tspan></text></g><g fill="none" color="#000" stroke="currentColor"><path stroke="#000" d="M403.8 418v-9m0-390.9v9"/><text transform="translate(403.8 439.9)" stroke="none" fill="#000" font-family="Arial" font-size="12" text-anchor="middle"><tspan>60</tspan></text></g><g fill="none" color="#000" stroke="currentColor"><path stroke="#000" d="M457.9 418v-9m0-390.9v9"/><text transform="translate(457.9 439.9)" stroke="none" fill="#000" font-family="Arial" font-size="12" text-anchor="middle"><tspan>70</tspan></text></g><g fill="none" color="#000" stroke="currentColor"><path stroke="#000" d="M512.1 418v-9m0-390.9v9"/><text transform="translate(512.1 439.9)" stroke="none" fill="#000" font-family="Arial" font-size="12" text-anchor="middle"><tspan>80</tspan></text></g><g fill="none" color="#000" stroke="currentColor"><path stroke="#000" d="M566.3 418v-9m0-390.9v9"/><text transform="translate(566.3 439.9)" stroke="none" fill="#000" font-family="Arial" font-size="12" text-anchor="middle"><tspan>90</tspan></text></g><path stroke="#000" d="M78.8 18.1V418H615V18.1H78.8z" fill="none" color="#000"/><text transform="translate(288.1 457.9)" stroke="none" fill="#000" font-family="Arial" font-size="12" text-anchor="end" color="#000"><tspan>raw</tspan></text><path stroke="#9400D3" d="M296.4 454h42.2M78.8 409.2l5.4.4 5.4.2 5.4-.6 5.5.3 5.4.6 5.4-1.1 5.4.8 5.4-.3 5.4-.2 5.5.8 5.4-.9h5.4l5.4.2 5.4.1h5.4l5.5.2 5.4-.1 5.4-.1h10.8l5.4.3 5.5-.3h5.4l5.4.3 5.4-.3 5.4.3 5.4-.6 5.5.3 5.4.1 5.4.5 5.4-.6 5.4.3 5.4-.2 5.4-.1h5.5l5.4.3h5.4l5.4-.6 5.4.4 5.4.2 5.5-.3 5.4.1 5.4.2 5.4-384 5.4 384.5 5.4-1.7 5.5 1.4 5.4-.2 5.4-.6 5.4.3 5.4.2 5.4-.5h5.5l5.4.3h10.8l5.4.1 5.4-.1H414.6l5.4.2 5.4-.5 5.5.3h5.4l5.4.3 5.4-.6 5.4.3 5.4.3 5.4-.6 5.5.3 5.4.3 5.4-.3 5.4.1 5.4-.1 5.4.3 5.5-.3 5.4.4 5.4-.4 5.4.3h10.8l5.5-.1 5.4.1H550l5.4-.7 5.4.4 5.5.2 5.4-.2h10.8l5.4.3 5.4-.6L598.8 26l5.4 383.5 5.4.3 5.4-.3" fill="none" color="#000"/><text transform="translate(288.1 475.9)" stroke="none" fill="#000" font-family="Arial" font-size="12" text-anchor="end" color="#000"><tspan>score p10=2731008</tspan></text><path stroke="#009E73" d="M296.4 472h42.2" fill="none" color="#000"/><text transform="translate(512.9 457.9)" stroke="none" fill="#000" font-family="Arial" font-size="12" text-anchor="end" color="#000"><tspan>score median=4096000</tspan></text><path stroke="#56B4E9" d="M521.2 454h42.2" fill="none" color="#000"/><g fill="none" color="#000" stroke="currentColor"><path stroke="#000" d="M78.8 18.1V418H615V18.1H78.8z"/></g></svg>

<?xml version="1.0" encoding="utf-8"  standalone="no"?>
<svg 
 width="640" height="490"
 viewBox="0 0 640 490"
 xmlns="http://www.w3.org/2000/svg"
 xmlns:xlink="http://www.w3.org/1999/xlink"
>

<title>Gnuplot</title>
<desc>Produced by GNUPLOT 5.4 patchlevel 0 </desc>

<g id="gnuplot_canvas">

<rect x="0" y="0" width="640" height="490" fill="#ffffff"/>
<defs>

	<circle id='gpDot' r='0.5' stroke-width='0.5' stroke='currentColor'/>
	<path id='gpPt0' stroke-width='0.222' stroke='currentColor' d='M-1,0 h2 M0,-1 v2'/>
	<path id='gpPt1' stroke-width='0.222' stroke='currentColor' d='M-1,-1 L1,1 M1,-1 L-1,1'/>
	<path id='gpPt2' stroke-width='0.222' stroke='currentColor' d='M-1,0 L1,0 M0,-1 L0,1 M-1,-1 L1,1 M-1,1 L1,-1'/>
	<rect id='gpPt3' stroke-width='0.222' stroke='currentColor' x='-1' y='-1' width='2' height='2'/>
	<rect id='gpPt4' stroke-width='0.222' stroke='currentColor' fill='currentColor' x='-1' y='-1' width='2' height='2'/>
	<circle id='gpPt5' stroke-width='0.222' stroke='currentColor' cx='0' cy='0' r='1'/>
	<use xlink:href='#gpPt5' id='gpPt6' fill='currentColor' stroke='none'/>
	<path id='gpPt7' stroke-width='0.222' stroke='currentColor' d='M0,-1.33 L-1.33,0.67 L1.33,0.67 z'/>
	<use xlink:href='#gpPt7' id='gpPt8' fill='currentColor' stroke='none'/>
	<use xlink:href='#gpPt7' id='gpPt9' stroke='currentColor' transform='rotate(180)'/>
	<use xlink:href='#gpPt9' id='gpPt10' fill='currentColor' stroke='none'/>
	<use xlink:href='#gpPt3' id='gpPt11' stroke='currentColor' transform='rotate(45)'/>
	<use xlink:href='#gpPt11' id='gpPt12' fill='currentColor' stroke='none'/>
	<path id='gpPt13' stroke-width='0.222' stroke='currentColor' d='M0,1.330 L1.265,0.411 L0.782,-1.067 L-0.782,-1.076 L-1.265,0.411 z'/>
	<use xlink:href='#gpPt13' id='gpPt14' fill='currentColor' stroke='none'/>
	<filter id='textbox' filterUnits='objectBoundingBox' x='0' y='0' height='1' width='1'>
	  <feFlood flood-color='#FFFFFF' flood-opacity='1' result='bgnd'/>
	  <feComposite in='SourceGraphic' in2='bgnd' operator='atop'/>
	</filter>
	<filter id='greybox' filterUnits='objectBoundingBox' x='0' y='0' height='1' width='1'>
	  <feFlood flood-color='lightgrey' flood-opacity='1' result='grey'/>
	  <feComposite in='SourceGraphic' in2='grey' operator='atop'/>
	</filter>
</defs>
<g fill="none" color="#FFFFFF" stroke="black" stroke-width="1.00" stroke-linecap="butt" stroke-linejoin="miter">
</g>
<g fill="none" color="black" stroke="currentColor" stroke-width="1.00" stroke-linecap="butt" stroke-linejoin="miter">
	<path stroke='black'  d='M78.8,394.2 L87.8,394.2 M615.0,394.2 L606.0,394.2  '/>	<g transform="translate(70.5,398.1)" stroke="none" fill="black" font-family="Arial" font-size="12.00"  text-anchor="end">
		<text><tspan font-family="Arial" > 456000</tspan></text>
	</g>
</g>
<g fill="none" color="black" stroke="currentColor" stroke-width="1.00" stroke-linecap="butt" stroke-linejoin="miter">
	<path stroke='black'  d='M78.8,320.6 L87.8,320.6 M615.0,320.6 L606.0,320.6  '/>	<g transform="translate(70.5,324.5)" stroke="none" fill="black" font-family="Arial" font-size="12.00"  text-anchor="end">
		<text><tspan font-family="Arial" > 458000</tspan></text>
	</g>
</g>
<g fill="none" color="black" stroke="currentColor" stroke-width="1.00" stroke-linecap="butt" stroke-linejoin="miter">
	<path stroke='black'  d='M78.8,247.0 L87.8,247.0 M615.0,247.0 L606.0,247.0  '/>	<g transform="translate(70.5,250.9)" stroke="none" fill="black" font-family="Arial" font-size="12.00"  text-anchor="end">
		<text><tspan font-family="Arial" > 460000</tspan></text>
	</g>
</g>
<g fill="none" color="black" stroke="currentColor" stroke-width="1.00" stroke-linecap="butt" stroke-linejoin="miter">
	<path stroke='black'  d='M78.8,173.4 L87.8,173.4 M615.0,173.4 L606.0,173.4  '/>	<g transform="translate(70.5,177.3)" stroke="none" fill="black" font-family="Arial" font-size="12.00"  text-anchor="end">
		<text><tspan font-family="Arial" > 462000</tspan></text>
	</g>
</g>
<g fill="none" color="black" stroke="currentColor" stroke-width="1.00" stroke-linecap="butt" stroke-linejoin="miter">
	<path stroke='black'  d='M78.8,99.8 L87.8,99.8 M615.0,99.8 L606.0,99.8  '/>	<g transform="translate(70.5,103.7)" stroke="none" fill="black" font-family="Arial" font-size="12.00"  text-anchor="end">
		<text><tspan font-family="Arial" > 464000</tspan></text>
	</g>
</g>
<g fill="none" color="black" stroke="currentColor" stroke-width="1.00" stroke-linecap="butt" stroke-linejoin="miter">
	<path stroke='black'  d='M78.8,26.3 L87.8,26.3 M615.0,26.3 L606.0,26.3  '/>	<g transform="translate(70.5,30.2)" stroke="none" fill="black" font-family="Arial" font-size="12.00"  text-anchor="end">
		<text><tspan font-family="Arial" > 466000</tspan></text>
	</g>
</g>
<g fill="none" color="black" stroke="currentColor" stroke-width="1.00" stroke-linecap="butt" stroke-linejoin="miter">
	<path stroke='black'  d='M78.8,418.0 L78.8,409.0 M78.8,18.1 L78.8,27.1  '/>	<g transform="translate(78.8,439.9)" stroke="none" fill="black" font-family="Arial" font-size="12.00"  text-anchor="middle">
		<text><tspan font-family="Arial" > 0</tspan></text>
	</g>
</g>
<g fill="none" color="black" stroke="currentColor" stroke-width="1.00" stroke-linecap="butt" stroke-linejoin="miter">
	<path stroke='black'  d='M133.0,418.0 L133.0,409.0 M133.0,18.1 L133.0,27.1  '/>	<g transform="translate(133.0,439.9)" stroke="none" fill="black" font-family="Arial" font-size="12.00"  text-anchor="middle">
		<text><tspan font-family="Arial" > 10</tspan></text>
	</g>
</g>
<g fill="none" color="black" stroke="currentColor" stroke-width="1.00" stroke-linecap="butt" stroke-linejoin="miter">
	<path stroke='black'  d='M187.1,418.0 L187.1,409.0 M187.1,18.1 L187.1,27.1  '/>	<g transform="translate(187.1,439.9)" stroke="none" fill="black" font-family="Arial" font-size="12.00"  text-anchor="middle">
		<text><tspan font-family="Arial" > 20</tspan></text>
	</g>
</g>
<g fill="none" color="black" stroke="currentColor" stroke-width="1.00" stroke-linecap="butt" stroke-linejoin="miter">
	<path stroke='black'  d='M241.3,418.0 L241.3,409.0 M241.3,18.1 L241.3,27.1  '/>	<g transform="translate(241.3,439.9)" stroke="none" fill="black" font-family="Arial" font-size="12.00"  text-anchor="middle">
		<text><tspan font-family="Arial" > 30</tspan></text>
	</g>
</g>
<g fill="none" color="black" stroke="currentColor" stroke-width="1.00" stroke-linecap="butt" stroke-linejoin="miter">
	<path stroke='black'  d='M295.4,418.0 L295.4,409.0 M295.4,18.1 L295.4,27.1  '/>	<g transform="translate(295.4,439.9)" stroke="none" fill="black" font-family="Arial" font-size="12.00"  text-anchor="middle">
		<text><tspan font-family="Arial" > 40</tspan></text>
	</g>
</g>
<g fill="none" color="black" stroke="currentColor" stroke-width="1.00" stroke-linecap="butt" stroke-linejoin="miter">
	<path stroke='black'  d='M349.6,418.0 L349.6,409.0 M349.6,18.1 L349.6,27.1  '/>	<g transform="translate(349.6,439.9)" stroke="none" fill="black" font-family="Arial" font-size="12.00"  text-anchor="middle">
		<text><tspan font-family="Arial" > 50</tspan></text>
	</g>
</g>
<g fill="none" color="black" stroke="currentColor" stroke-width="1.00" stroke-linecap="butt" stroke-linejoin="miter">
	<path stroke='black'  d='M403.8,418.0 L403.8,409.0 M403.8,18.1 L403.8,27.1  '/>	<g transform="translate(403.8,439.9)" stroke="none" fill="black" font-family="Arial" font-size="12.00"  text-anchor="middle">
		<text><tspan font-family="Arial" > 60</tspan></text>
	</g>
</g>
<g fill="none" color="black" stroke="currentColor" stroke-width="1.00" stroke-linecap="butt" stroke-linejoin="miter">
	<path stroke='black'  d='M457.9,418.0 L457.9,409.0 M457.9,18.1 L457.9,27.1  '/>	<g transform="translate(457.9,439.9)" stroke="none" fill="black" font-family="Arial" font-size="12.00"  text-anchor="middle">
		<text><tspan font-family="Arial" > 70</tspan></text>
	</g>
</g>
<g fill="none" color="black" stroke="currentColor" stroke-width="1.00" stroke-linecap="butt" stroke-linejoin="miter">
	<path stroke='black'  d='M512.1,418.0 L512.1,409.0 M512.1,18.1 L512.1,27.1  '/>	<g transform="translate(512.1,439.9)" stroke="none" fill="black" font-family="Arial" font-size="12.00"  text-anchor="middle">
		<text><tspan font-family="Arial" > 80</tspan></text>
	</g>
</g>
<g fill="none" color="black" stroke="currentColor" stroke-width="1.00" stroke-linecap="butt" stroke-linejoin="miter">
	<path stroke='black'  d='M566.3,418.0 L566.3,409.0 M566.3,18.1 L566.3,27.1  '/>	<g transform="translate(566.3,439.9)" stroke="none" fill="black" font-family="Arial" font-size="12.00"  text-anchor="middle">
		<text><tspan font-family="Arial" > 90</tspan></text>
	</g>
</g>
<g fill="none" color="black" stroke="currentColor" stroke-width="1.00" stroke-linecap="butt" stroke-linejoin="miter">
</g>
<g fill="none" color="black" stroke="currentColor" stroke-width="1.00" stroke-linecap="butt" stroke-linejoin="miter">
	<path stroke='black'  d='M78.8,18.1 L78.8,418.0 L615.0,418.0 L615.0,18.1 L78.8,18.1 Z  '/></g>
<g fill="none" color="black" stroke="currentColor" stroke-width="1.00" stroke-linecap="butt" stroke-linejoin="miter">
</g>
	<g id="gnuplot_plot_1" ><title>raw</title>
<g fill="none" color="black" stroke="currentColor" stroke-width="1.00" stroke-linecap="butt" stroke-linejoin="miter">
	<g transform="translate(288.1,457.9)" stroke="none" fill="black" font-family="Arial" font-size="12.00"  text-anchor="end">
		<text><tspan font-family="Arial" >raw</tspan></text>
	</g>
</g>
<g fill="none" color="black" stroke="currentColor" stroke-width="1.00" stroke-linecap="butt" stroke-linejoin="miter">
	<path stroke='rgb(148,   0, 211)'  d='M296.4,454.0 L338.6,454.0 M78.8,409.2 L84.2,409.6 L89.6,409.8 L95.0,409.2 L100.5,409.5 L105.9,410.1
		L111.3,409.0 L116.7,409.8 L122.1,409.5 L127.5,409.3 L133.0,410.1 L138.4,409.2 L143.8,409.2 L149.2,409.4
		L154.6,409.5 L160.0,409.5 L165.5,409.7 L170.9,409.6 L176.3,409.5 L181.7,409.5 L187.1,409.5 L192.5,409.8
		L198.0,409.5 L203.4,409.5 L208.8,409.8 L214.2,409.5 L219.6,409.8 L225.0,409.2 L230.5,409.5 L235.9,409.6
		L241.3,410.1 L246.7,409.5 L252.1,409.8 L257.5,409.6 L262.9,409.5 L268.4,409.5 L273.8,409.8 L279.2,409.8
		L284.6,409.2 L290.0,409.6 L295.4,409.8 L300.9,409.5 L306.3,409.6 L311.7,409.8 L317.1,25.8 L322.5,410.3
		L327.9,408.6 L333.4,410.0 L338.8,409.8 L344.2,409.2 L349.6,409.5 L355.0,409.7 L360.4,409.2 L365.9,409.2
		L371.3,409.5 L376.7,409.5 L382.1,409.5 L387.5,409.6 L392.9,409.5 L398.4,409.5 L403.8,409.5 L409.2,409.5
		L414.6,409.5 L420.0,409.7 L425.4,409.2 L430.9,409.5 L436.3,409.5 L441.7,409.8 L447.1,409.2 L452.5,409.5
		L457.9,409.8 L463.3,409.2 L468.8,409.5 L474.2,409.8 L479.6,409.5 L485.0,409.6 L490.4,409.5 L495.8,409.8
		L501.3,409.5 L506.7,409.9 L512.1,409.5 L517.5,409.8 L522.9,409.8 L528.3,409.8 L533.8,409.7 L539.2,409.8
		L544.6,409.8 L550.0,409.8 L555.4,409.1 L560.8,409.5 L566.3,409.7 L571.7,409.5 L577.1,409.5 L582.5,409.5
		L587.9,409.8 L593.3,409.2 L598.8,26.0 L604.2,409.5 L609.6,409.8 L615.0,409.5  '/></g>
	</g>
	<g id="gnuplot_plot_2" ><title>score p10=2731008</title>
<g fill="none" color="black" stroke="currentColor" stroke-width="1.00" stroke-linecap="butt" stroke-linejoin="miter">
	<g transform="translate(288.1,475.9)" stroke="none" fill="black" font-family="Arial" font-size="12.00"  text-anchor="end">
		<text><tspan font-family="Arial" >score p10=2731008</tspan></text>
	</g>
</g>
<g fill="none" color="black" stroke="currentColor" stroke-width="1.00" stroke-linecap="butt" stroke-linejoin="miter">
	<path stroke='rgb(  0, 158, 115)'  d='M296.4,472.0 L338.6,472.0  '/></g>
	</g>
	<g id="gnuplot_plot_3" ><title>score median=4096000</title>
<g fill="none" color="black" stroke="currentColor" stroke-width="1.00" stroke-linecap="butt" stroke-linejoin="miter">
	<g transform="translate(512.9,457.9)" stroke="none" fill="black" font-family="Arial" font-size="12.00"  text-anchor="end">
		<text><tspan font-family="Arial" >score median=4096000</tspan></text>
	</g>
</g>
<g fill="none" color="black" stroke="currentColor" stroke-width="1.00" stroke-linecap="butt" stroke-linejoin="miter">
	<path stroke='rgb( 86, 180, 233)'  d='M521.2,454.0 L563.4,454.0  '/></g>
	</g>
<g fill="none" color="#FFFFFF" stroke="rgb( 86, 180, 233)" stroke-width="2.00" stroke-linecap="butt" stroke-linejoin="miter">
</g>
<g fill="none" color="black" stroke="currentColor" stroke-width="2.00" stroke-linecap="butt" stroke-linejoin="miter">
</g>
<g fill="none" color="black" stroke="black" stroke-width="1.00" stroke-linecap="butt" stroke-linejoin="miter">
</g>
<g fill="none" color="black" stroke="currentColor" stroke-width="1.00" stroke-linecap="butt" stroke-linejoin="miter">
	<path stroke='black'  d='M78.8,18.1 L78.8,418.0 L615.0,418.0 L615.0,18.1 L78.8,18.1 Z  '/></g>
<g fill="none" color="black" stroke="currentColor" stroke-width="1.00" stroke-linecap="butt" stroke-linejoin="miter">
</g>
</g>
</svg>
